src/main/resources/icons/SpringApiIcons/icons/gutter/listener.svg

<svg xmlns="http://www.w3.org/2000/svg" width="12" height="12" viewBox="0 0 12 12">
  <g fill="none" fill-rule="evenodd">
    <path fill="#62B543" fill-opacity=".7" d="M2.5,4.29489497 L8.89025,10.5023644 C7.14025,11.8720341 4.89525,11.3839071 3.21775,9.75317445 C2.94683535,9.49020474 2.70655391,9.21287829 2.5,8.92553287 L2.5,4.29489497 Z M9.5,9.80454736 L3.109625,3.59816051 C4.859625,2.22727655 7.104625,2.71661777 8.783375,4.34735041 C9.05378231,4.61002325 9.2936905,4.88702042 9.5,5.17401884 L9.5,9.80454736 Z"/>
    <polygon fill="#9AA7B0" points="1.5 9 0 9 0 4 1.5 4"/>
    <path fill="#9AA7B0" d="M1.46428583,6.76753846 C1.46610012,3.50561538 2.50387152,0.846153846 5.99727857,0.846153846 C9.49612848,0.846153846 10.5338999,3.50561538 10.5357142,6.76753846 L11.442857,6.76753846 C11.4410427,3.03938462 10.5357142,0 5.99727857,0 C2.00403582,0 0.558957286,3.03938462 0.557143,6.76753846 L1.46428583,6.76753846 Z"/>
    <polygon fill="#9AA7B0" points="12 9 10.5 9 10.5 4 12 4"/>
  </g>
</svg>

<svg xmlns="http://www.w3.org/2000/svg" width="12" height="12" viewBox="0 0 12 12"><rect id="frame" width="12" height="12" fill="none"/><g fill="none" fill-rule="evenodd"><path fill="#62B543" fill-opacity=".7" d="M2.5 4.295l6.39 6.207c-1.75 1.37-3.995.882-5.672-.749a6.204 6.204 0 0 1-.718-.827V4.295zm7 5.51L3.11 3.598c1.75-1.37 3.995-.881 5.673.75.27.262.51.539.717.826v4.63z"/><path fill="#9AA7B0" d="M1.5 9H0V4h1.5z"/><path fill="#9AA7B0" d="M1.464 6.768C1.466 3.506 2.504.846 5.997.846c3.5 0 4.537 2.66 4.539 5.922h.907C11.44 3.039 10.536 0 5.997 0 2.004 0 .56 3.04.557 6.768h.907z"/><path fill="#9AA7B0" d="M12 9h-1.5V4H12z"/></g></svg>
